icons/svg/input_28.svg

<svg width="28" height="28" xmlns="http://www.w3.org/2000/svg"><path d="M14 0c7.732 0 14 6.268 14 14s-6.268 14-14 14S0 21.732 0 14 6.268 0 14 0zM1.01 14.5C1.273 21.437 7 27 14 27c7.168 0 13-5.832 13-13S21.168 1 14 1C7 1 1.273 6.563 1.01 13.5h14.283l-4.147-4.146a.502.502 0 01.708-.708l5 5a.502.502 0 010 .708l-5 5a.502.502 0 01-.708 0 .502.502 0 010-.708l4.147-4.146z" fill="#171B1F" fill-rule="evenodd"/></svg>

<?xml version="1.0" encoding="UTF-8"?>
<svg width="28px" height="28px" viewBox="0 0 28 28" version="1.1" xmlns="http://www.w3.org/2000/svg" xmlns:xlink="http://www.w3.org/1999/xlink">
    <!-- Generator: Sketch 57.1 (83088) - https://sketch.com -->
    <title>input_28</title>
    <desc>Created with Sketch.</desc>
    <g id="Icons-Webex" stroke="none" stroke-width="1" fill="none" fill-rule="evenodd">
        <g id="activities/input_28" fill="#171B1F">
            <g id="input_28">
                <path d="M14,0 C21.732,0 28,6.268 28,14 C28,21.732 21.732,28 14,28 C6.268,28 0,21.732 0,14 C0,6.268 6.268,0 14,0 Z M1.00950009,14.5003525 C1.27334508,21.4374294 6.99953311,27 14,27 C21.168,27 27,21.168 27,14 C27,6.832 21.168,1 14,1 C6.99919738,1 1.27279584,6.56310413 1.00946217,13.5006456 L15.293,13.5 L11.146,9.354 C10.951,9.158 10.951,8.842 11.146,8.646 C11.244,8.549 11.372,8.5 11.5,8.5 C11.628,8.5 11.756,8.549 11.854,8.646 L11.854,8.646 L16.854,13.646 C17.049,13.842 17.049,14.158 16.854,14.354 L16.854,14.354 L11.854,19.354 C11.756,19.451 11.628,19.5 11.5,19.5 C11.372,19.5 11.244,19.451 11.146,19.354 C10.951,19.158 10.951,18.842 11.146,18.646 L11.146,18.646 L15.293,14.5 Z" id="fill"></path>
            </g>
        </g>
    </g>
</svg>
